16x16/apps/sheets.svg

<svg height="16" width="16" xmlns="http://www.w3.org/2000/svg"><rect fill="#67c0bf" height="16" rx=".857" width="16"/><path d="m4 5v7h7v-7zm1 1h2v1h-2zm3 0h2v1h-2zm-3 2h2v1h-2zm3 0h2v1h-2zm-3 2h2v1h-2zm3 0h2v1h-2z" opacity=".5"/></svg>

<svg height="16" width="16" xmlns="http://www.w3.org/2000/svg">
    <rect fill="#67c0bf" height="16" rx=".857" width="16"/>
    <path d="M4 5v7h7V5zm1 1h2v1H5zm3 0h2v1H8zM5 8h2v1H5zm3 0h2v1H8zm-3 2h2v1H5zm3 0h2v1H8z" opacity=".5"/>
</svg>
